static/images/face-tribal-vector.svg

<svg xmlns="http://www.w3.org/2000/svg" width="521" height="573" fill="none" viewBox="0 0 521 573"><g clip-path="url(#clip0)"><path fill="#FEBB9F" d="M329.807 249.87C337.187 249.87 343.169 243.866 343.169 236.461C343.169 229.055 337.187 223.051 329.807 223.051C322.428 223.051 316.446 229.055 316.446 236.461C316.446 243.866 322.428 249.87 329.807 249.87Z"/><path fill="#FEBB9F" d="M369.784 508.352C379.323 508.352 387.056 500.591 387.056 491.018C387.056 481.445 379.323 473.684 369.784 473.684C360.245 473.684 352.511 481.445 352.511 491.018C352.511 500.591 360.245 508.352 369.784 508.352Z"/><path fill="#FEBB9F" d="M335.239 549.125C344.778 549.125 352.511 541.364 352.511 531.791C352.511 522.218 344.778 514.457 335.239 514.457C325.7 514.457 317.966 522.218 317.966 531.791C317.966 541.364 325.7 549.125 335.239 549.125Z"/><path fill="#FEBB9F" d="M286.246 573C295.785 573 303.518 565.239 303.518 555.666C303.518 546.093 295.785 538.332 286.246 538.332C276.706 538.332 268.973 546.093 268.973 555.666C268.973 565.239 276.706 573 286.246 573Z"/><path fill="#FEBB9F" d="M191.084 249.87C198.464 249.87 204.446 243.866 204.446 236.461C204.446 229.055 198.464 223.051 191.084 223.051C183.705 223.051 177.722 229.055 177.722 236.461C177.722 243.866 183.705 249.87 191.084 249.87Z"/><path fill="#FEBB9F" d="M256.372 376.331H245.4V398.135H237.904V376.331H222.805V398.135H215.309V376.331H200.209V398.135H192.714V376.331C192.714 376.331 175.006 382 174.355 405.875V410.127C175.006 434.002 192.714 439.671 192.714 439.671V417.867H200.209V438.253V439.671H215.309V438.253V417.867H222.805V438.253V439.671H237.904V438.253V417.867H245.4V438.253V439.671H256.372V417.867H260.5V415.796V413.724V412.307V402.495V400.424V398.353H256.372V376.331Z"/><path fill="#FEBB9F" d="M260.5 456.787C260.5 456.787 207.705 459.621 179.243 441.306C179.243 441.306 183.48 514.457 260.5 517.292C337.52 514.457 341.757 441.306 341.757 441.306C313.295 459.512 260.5 456.787 260.5 456.787Z"/><path fill="#FEBB9F" d="M397.377 103.349H260.5H123.623C118.192 103.349 113.847 107.71 113.847 113.161C113.847 116.759 116.78 119.702 120.364 119.702H260.5H400.636C404.22 119.702 407.154 116.759 407.154 113.161C407.154 107.71 402.7 103.349 397.377 103.349Z"/><path fill="#FEBB9F" d="M373.477 77.0759H260.609H260.283H147.414C141.982 77.0759 137.637 81.4367 137.637 86.8876C137.637 90.4852 140.57 93.4287 144.155 93.4287H260.283H260.609H376.736C380.321 93.4287 383.254 90.4852 383.254 86.8876C383.363 81.4367 378.909 77.0759 373.477 77.0759Z"/><path fill="#FEBB9F" d="M280.814 0H260.5H240.186C234.754 0 230.409 4.36073 230.409 9.81165C230.409 13.4092 233.342 16.3527 236.927 16.3527H260.5H284.073C287.658 16.3527 290.591 13.4092 290.591 9.81165C290.591 4.36073 286.246 0 280.814 0Z"/><path fill="#FEBB9F" d="M315.577 22.4578H260.609H260.283H205.315C199.883 22.4578 195.538 26.8185 195.538 32.2694C195.538 35.867 198.471 38.8105 202.056 38.8105H260.283H260.609H318.836C322.42 38.8105 325.353 35.867 325.353 32.2694C325.353 26.8185 321.008 22.4578 315.577 22.4578Z"/><path fill="#FEBB9F" d="M351.534 47.0958H260.609H260.283H169.358C163.926 47.0958 159.581 51.4566 159.581 56.9075C159.581 60.5051 162.514 63.4486 166.099 63.4486H260.283H260.609H354.793C358.378 63.4486 361.311 60.5051 361.311 56.9075C361.311 51.4566 356.965 47.0958 351.534 47.0958Z"/><path fill="#FEBB9F" d="M151.216 508.352C160.755 508.352 168.489 500.591 168.489 491.018C168.489 481.445 160.755 473.684 151.216 473.684C141.677 473.684 133.943 481.445 133.943 491.018C133.943 500.591 141.677 508.352 151.216 508.352Z"/><path fill="#FEBB9F" d="M185.761 549.125C195.3 549.125 203.034 541.364 203.034 531.791C203.034 522.218 195.3 514.457 185.761 514.457C176.222 514.457 168.489 522.218 168.489 531.791C168.489 541.364 176.222 549.125 185.761 549.125Z"/><path fill="#FEBB9F" d="M234.646 573C244.185 573 251.918 565.239 251.918 555.666C251.918 546.093 244.185 538.332 234.646 538.332C225.106 538.332 217.373 546.093 217.373 555.666C217.373 565.239 225.106 573 234.646 573Z"/><path fill="#FEBB9F" d="M328.286 376.331V398.135H320.682V376.331H305.582V398.135H298.087V376.331H282.987V398.135H275.491V376.331H264.193V398.135H260.391V400.206V402.277V412.089V413.506V415.578V417.649H264.193V439.453H275.491V438.035V417.649H282.987V438.035V439.453H298.087V438.035V417.649H305.582V438.035V439.453H320.682V438.035V417.649H328.178V439.453C328.178 439.453 345.885 433.784 346.537 409.909V405.657C345.993 382 328.286 376.331 328.286 376.331Z"/><path fill="#FEBB9F" d="M517.524 217.928C511.983 202.665 497.753 188.275 483.63 180.534C455.712 165.381 429.314 178.136 409.652 199.831V131.585H260.5H111.239V199.831C91.5769 178.136 65.1793 165.381 37.2608 180.534C23.1387 188.166 8.90784 202.665 3.3676 217.928C-8.03878 249.652 9.99416 292.387 44.6478 299.364C68.1124 304.052 102.875 290.098 110.262 265.35C114.607 250.742 107.655 233.735 96.0309 224.36C85.3849 215.856 63.1153 213.022 52.0348 222.179C40.8457 231.555 41.063 248.998 41.063 248.998C41.1716 259.354 51.6003 269.929 62.029 269.275C71.5886 268.73 80.931 260.663 80.931 250.742C80.931 244.31 75.7166 239.186 69.416 239.186C63.0067 239.186 57.901 244.419 57.901 250.742C57.901 255.866 61.1599 260.118 65.7225 261.753C50.1881 261.208 50.1881 247.581 50.1881 247.581C51.6003 222.942 69.8505 229.265 69.8505 229.265C97.2258 227.848 92.9892 255.321 92.9892 255.321C90.1647 286.282 58.6614 283.775 58.6614 283.775C43.127 283.775 26.1804 276.906 23.2473 260.118C21.0746 247.362 25.5286 233.081 32.481 222.506C43.8874 205.172 61.4858 203.864 61.4858 203.864C126.665 204.518 127.317 258.046 127.317 258.046C125.905 300.236 81.0396 304.488 81.0396 304.488C81.0396 304.488 162.296 394.428 162.296 394.537C160.993 393.12 169.792 383.744 170.878 382.763C174.789 379.057 179.352 376.222 184.023 373.715C194.886 368.155 206.184 365.647 218.133 363.903C244.966 359.978 272.341 358.234 299.173 362.813C321.986 366.737 343.278 376.549 358.378 394.537L439.634 304.488C439.634 304.488 394.769 300.236 393.357 258.046C393.357 258.046 394.009 204.627 459.188 203.864C459.188 203.864 476.787 205.172 488.193 222.506C495.146 232.972 499.599 247.362 497.427 260.118C494.494 276.906 477.547 283.775 462.013 283.775C462.013 283.775 430.509 286.282 427.685 255.321C427.685 255.321 423.448 227.848 450.824 229.265C450.824 229.265 469.074 222.942 470.486 247.581C470.486 247.581 470.486 261.099 454.952 261.753C459.514 260.227 462.773 255.866 462.773 250.742C462.773 244.31 457.559 239.186 451.258 239.186C444.849 239.186 439.743 244.419 439.743 250.742C439.743 260.663 449.194 268.73 458.645 269.275C469.074 269.82 479.502 259.354 479.611 248.998C479.611 248.998 479.937 231.555 468.639 222.179C457.559 212.913 435.181 215.856 424.643 224.36C413.02 233.626 406.067 250.633 410.412 265.35C417.799 289.989 452.67 304.052 476.026 299.364C511.006 292.496 529.039 249.652 517.524 217.928ZM191.084 261.753C177.179 261.753 165.881 250.415 165.881 236.461C165.881 222.506 177.179 211.168 191.084 211.168C204.989 211.168 216.287 222.506 216.287 236.461C216.287 250.415 204.989 261.753 191.084 261.753ZM231.93 348.968L260.5 225.232L288.527 348.968H231.93ZM329.807 261.753C315.902 261.753 304.605 250.415 304.605 236.461C304.605 222.506 315.902 211.168 329.807 211.168C343.712 211.168 355.01 222.506 355.01 236.461C355.01 250.415 343.712 261.753 329.807 261.753ZM393.574 202.665C336.108 136.6 260.5 211.059 260.5 211.059C260.5 211.059 184.783 136.491 127.426 202.665V166.144C127.426 166.144 177.831 120.465 260.5 171.813C343.169 120.465 393.574 166.144 393.574 166.144V202.665Z"/></g><defs><clipPath id="clip0"><rect width="521" height="573" fill="#fff"/></clipPath></defs></svg>

<svg xmlns="http://www.w3.org/2000/svg" fill="none" viewBox="0 0 521 573"><g clip-path="url(#a)" fill="#FEBB9F"><path d="M329.807 249.87c7.38 0 13.362-6.004 13.362-13.409 0-7.406-5.982-13.41-13.362-13.41-7.379 0-13.361 6.004-13.361 13.41 0 7.405 5.982 13.409 13.361 13.409zm39.977 258.482c9.539 0 17.272-7.761 17.272-17.334s-7.733-17.334-17.272-17.334c-9.539 0-17.273 7.761-17.273 17.334s7.734 17.334 17.273 17.334zm-34.545 40.773c9.539 0 17.272-7.761 17.272-17.334s-7.733-17.334-17.272-17.334c-9.539 0-17.273 7.761-17.273 17.334s7.734 17.334 17.273 17.334zM286.246 573c9.539 0 17.272-7.761 17.272-17.334s-7.733-17.334-17.272-17.334c-9.54 0-17.273 7.761-17.273 17.334S276.706 573 286.246 573zm-95.162-323.13c7.38 0 13.362-6.004 13.362-13.409 0-7.406-5.982-13.41-13.362-13.41-7.379 0-13.362 6.004-13.362 13.41 0 7.405 5.983 13.409 13.362 13.409zm65.288 126.461H245.4v21.804h-7.496v-21.804h-15.099v21.804h-7.496v-21.804h-15.1v21.804h-7.495v-21.804s-17.708 5.669-18.359 29.544v4.252c.651 23.875 18.359 29.544 18.359 29.544v-21.804h7.495v21.804h15.1v-21.804h7.496v21.804h15.099v-21.804h7.496v21.804h10.972v-21.804h4.128v-19.514h-4.128v-22.022zm4.128 80.456s-52.795 2.834-81.257-15.481c0 0 4.237 73.151 81.257 75.986 77.02-2.835 81.257-75.986 81.257-75.986-28.462 18.206-81.257 15.481-81.257 15.481zm136.877-353.438H123.623c-5.431 0-9.776 4.361-9.776 9.812 0 3.598 2.933 6.541 6.517 6.541h280.272c3.584 0 6.518-2.943 6.518-6.541 0-5.451-4.454-9.812-9.777-9.812zm-23.9-26.273H147.414c-5.432 0-9.777 4.36-9.777 9.812 0 3.597 2.933 6.54 6.518 6.54h232.581c3.585 0 6.518-2.943 6.518-6.54.109-5.451-4.345-9.812-9.777-9.812zM280.814 0h-40.628c-5.432 0-9.777 4.36-9.777 9.812 0 3.597 2.933 6.54 6.518 6.54h47.146c3.585 0 6.518-2.943 6.518-6.54 0-5.451-4.345-9.812-9.777-9.812zm34.763 22.458H205.315c-5.432 0-9.777 4.36-9.777 9.811 0 3.598 2.933 6.541 6.518 6.541h116.78c3.584 0 6.517-2.943 6.517-6.54 0-5.452-4.345-9.812-9.776-9.812zm35.957 24.638H169.358c-5.432 0-9.777 4.36-9.777 9.812 0 3.597 2.933 6.54 6.518 6.54h188.694c3.585 0 6.518-2.943 6.518-6.54 0-5.451-4.346-9.812-9.777-9.812zM151.216 508.352c9.539 0 17.273-7.761 17.273-17.334s-7.734-17.334-17.273-17.334-17.273 7.761-17.273 17.334 7.734 17.334 17.273 17.334zm34.545 40.773c9.539 0 17.273-7.761 17.273-17.334s-7.734-17.334-17.273-17.334-17.272 7.761-17.272 17.334 7.733 17.334 17.272 17.334zM234.646 573c9.539 0 17.272-7.761 17.272-17.334s-7.733-17.334-17.272-17.334c-9.54 0-17.273 7.761-17.273 17.334S225.106 573 234.646 573z"/><path d="M328.286 376.331v21.804h-7.604v-21.804h-15.1v21.804h-7.495v-21.804h-15.1v21.804h-7.496v-21.804h-11.298v21.804h-3.802v19.514h3.802v21.804h11.298v-21.804h7.496v21.804h15.1v-21.804h7.495v21.804h15.1v-21.804h7.496v21.804s17.707-5.669 18.359-29.544v-4.252c-.544-23.657-18.251-29.326-18.251-29.326z"/><path d="M517.524 217.928c-5.541-15.263-19.771-29.653-33.894-37.394-27.918-15.153-54.316-2.398-73.978 19.297v-68.246H111.239v68.246c-19.662-21.695-46.06-34.45-73.978-19.297-14.122 7.632-28.353 22.131-33.893 37.394-11.407 31.724 6.626 74.459 41.28 81.436 23.464 4.688 58.227-9.266 65.614-34.014 4.345-14.608-2.607-31.615-14.231-40.99-10.646-8.504-32.916-11.338-43.996-2.181-11.19 9.376-10.972 26.819-10.972 26.819.109 10.356 10.537 20.931 20.966 20.277 9.56-.545 18.902-8.612 18.902-18.533 0-6.432-5.214-11.556-11.515-11.556-6.41 0-11.515 5.233-11.515 11.556 0 5.124 3.259 9.376 7.821 11.011-15.534-.545-15.534-14.172-15.534-14.172 1.412-24.639 19.662-18.316 19.662-18.316 27.376-1.417 23.14 26.056 23.14 26.056-2.825 30.961-34.329 28.454-34.329 28.454-15.534 0-32.48-6.869-35.414-23.657-2.172-12.756 2.282-27.037 9.234-37.612 11.406-17.334 29.005-18.642 29.005-18.642 65.179.654 65.831 54.182 65.831 54.182-1.412 42.19-46.277 46.442-46.277 46.442s81.256 89.94 81.256 90.049c-1.303-1.417 7.496-10.793 8.582-11.774 3.911-3.706 8.474-6.541 13.145-9.048 10.863-5.56 22.161-8.068 34.11-9.812 26.833-3.925 54.208-5.669 81.04-1.09 22.813 3.924 44.105 13.736 59.205 31.724l81.256-90.049s-44.865-4.252-46.277-46.442c0 0 .652-53.419 65.831-54.182 0 0 17.599 1.308 29.005 18.642 6.953 10.466 11.406 24.856 9.234 37.612-2.933 16.788-19.88 23.657-35.414 23.657 0 0-31.504 2.507-34.328-28.454 0 0-4.237-27.473 23.139-26.056 0 0 18.25-6.323 19.662 18.316 0 0 0 13.518-15.534 14.172 4.562-1.526 7.821-5.887 7.821-11.011 0-6.432-5.214-11.556-11.515-11.556-6.409 0-11.515 5.233-11.515 11.556 0 9.921 9.451 17.988 18.902 18.533 10.429.545 20.857-9.921 20.966-20.277 0 0 .326-17.443-10.972-26.819-11.08-9.266-33.458-6.323-43.996 2.181-11.623 9.266-18.576 26.273-14.231 40.99 7.387 24.639 42.258 38.702 65.614 34.014 34.98-6.868 53.013-49.712 41.498-81.436zm-326.44 43.825c-13.905 0-25.203-11.338-25.203-25.292 0-13.955 11.298-25.293 25.203-25.293s25.203 11.338 25.203 25.293c0 13.954-11.298 25.292-25.203 25.292zm40.846 87.215 28.57-123.736 28.027 123.736H231.93zm97.877-87.215c-13.905 0-25.202-11.338-25.202-25.292 0-13.955 11.297-25.293 25.202-25.293 13.905 0 25.203 11.338 25.203 25.293 0 13.954-11.298 25.292-25.203 25.292zm63.767-59.088C336.108 136.6 260.5 211.059 260.5 211.059s-75.717-74.568-133.074-8.394v-36.521s50.405-45.679 133.074 5.669c82.669-51.348 133.074-5.669 133.074-5.669v36.521z"/></g><defs><clipPath id="a"><path fill="#fff" d="M0 0h521v573H0z"/></clipPath></defs></svg>
